!!!!SEGMENT: pl-wtm--r-1394_stefani-jozef--mazur-rok-1869.krn
!!!cenid: 18xx:1867
!!!COM: Stefani, Józef
!!!COM-rismID: pe30024097
!!!CDT: 1800/04/16-1876/03/19
!!!CNT: Polish
!!!OTL: Mazur Rok 1869
!!!PDT:
!!!AGN: Secular; Mazurka
!!!SMS-siglum: PL-Wtm
!!!SMS-shelfmark: R 1394
!!!SMS-shelfwork: W
!!!SMS-variant:
!!!SMS-altvar:
!!!NIFC-rismSourceID: 1001117326
!!!NIFC-islandoraID:
!!!URL-pdf-islandora:
!!!URL-scan:
!!!ONB-nifc: UWAGA: utwory w zbiorze: 1. Mazur Rok 1869, 2. Krakowiak (Hej, między wronami siadł gołąb)
!!!AIN: 1 forte
!!!key:
**kern	**kern	**dynam
*part1	*part1	*part1
*staff2	*staff1	*
*Iforte	*Iempty	*
*I"Fortepian	*	*
*I'P-no	*	*
*clefF4	*clefG2	*
*k[f#c#]	*k[f#c#]	*
*D:	*D:	*
*M3/8	*M3/8	*
*>[A,B,C,D,D,B,E,F,F,B,G]	*	*
=1	=1	=1
*>A	*	*
!	!LO:TX:t=P:problem=all\right&colon; global	!
!	!LO:TX:i:a:t=Wstęp \nmoderato.	!LO:DY:rj
8A\ 8E\ 8AA\	8aa\ 8cc#\ 8a\	f
.	(8qgg#X/	.
8r	4aaTT\)	.
8r	.	.
=2	=2	=2
8r	4.aaTTT\	.
8r	.	.
*clefG2	*	*
8e/ 8A/	.	.
=3	=3	=3
4f#/ 4d/	4.aaTTT\	.
8a/ 8f#/	.	.
=4	=4	=4
4g/ 4e/	4.aaTTT\	.
8f#/ 8d/	.	.
.	(16qqgg#X/LL	.
.	16qqaa/JJ)	.
!!LO:LB:g=original
=5||	=5||	=5|;
*>B	*	*
*clefF4	*	*
*k[f#c#]	*k[f#c#]	*
*M3/8	*M3/8	*
!	!LO:TX:i:a:t=Mazur.	!
8B-X\L 8G\ 8E\ 8C#\	16.e/LL	sf
.	32g/JJk	.
8A\ 8F#\ 8D\	8f#/L	.
8A\J 8F#\ 8D\	8aT/J	.
=6	=6	=6
*rep	*rep	*
8B-X\L 8G\ 8E\ 8C#\	16.e/LL	sfyy
.	32g/JJk	.
8A\ 8F#\ 8D\	8f#/L	.
8A\J 8F#\ 8D\	8aT/J	.
*Xrep	*Xrep	*
=7	=7	=7
*rep	*rep	*
8B-X\L 8G\ 8E\ 8C#\	16.e/LL	sfyy
.	32g/JJk	.
8A\ 8F#\ 8D\	8f#/L	.
8A\J 8F#\ 8D\	8aT/J	.
*Xrep	*Xrep	*
=8	=8	=8
*rep	*rep	*
8B-X\L 8G\ 8E\ 8C#\	16.e/LL	sfyy
.	32g/JJk	.
8A\ 8F#\ 8D\	8f#/L	.
8A\J 8F#\ 8D\	8aT/J	f
*Xrep	*Xrep	*
=9	=9	=9
16.D/LL 16.DD/	16.ff#\LL 16.dd\ 16.a\	.
32E/JJk 32EE/	32cc#\JJk 32a\ 32g\	.
8F#/L 8FF#/	8dd/L 8a/	.
8G/J 8GG/	8b/J 8g/	.
!!LO:LB:g=original
=10	=10	=10
*tremolo	*	*
8A/ 8AA/L	16.a/LL 16.f#/	.
.	32g/JJk 32e/	.
8A/ 8AA/	8e/L 8c#/	.
8A/ 8AA/J	8g/J 8e/	.
*Xtremolo	*	*
=11	=11	=11
16.A\LL 16.D\	16.f#/LL 16.d/	.
32A\JJk 32E\	32cc#/JJk 32a/ 32g/	.
8F#\L 8D\	8dd/L 8a/	.
8B\J 8G\	8ee/J 8b/ 8g/	.
=12	=12	=12
!LO:TX:t=P:problem=mixed beam	!	!
16.A\LL	16.a/LL 16.f#/	.
32AA/JJk	32cc#/JJk 32a/ 32g/ 32e/	.
8AA/L	8ee/L 8cc#/ 8g/	.
8D/J	8dd/J 8f#/	.
=13||	=13||	=13||
8A\ 8AA\	16.ee\LL 16.cc#\ 16.a\	.
.	32ee\JJk 32cc#\ 32a\	.
8c#\L 8A\ 8G\ 8E\	8a\L	.
8c#\J 8A\ 8G\ 8E\	8eeT\J	.
=14	=14	=14
*^	*	*
4.D/	8D\L	16.ff#\LL 16.dd\ 16.a\	.
.	.	32ff#\JJk 32dd\ 32a\	.
.	8d\ 8A\ 8F#\	8a\L	.
.	8d\J 8A\ 8F#\	8ff#t\J	.
*v	*v	*	*
!!LO:LB:g=original
=15	=15	=15
8AA/	16.aa\LL	.
.	32gg\JJk	.
8A\L 8G\ 8E\	8ee\L	.
8A\J 8G\ 8E\	8cc#\J	.
=16	=16	=16
*^	*	*
4.D/	8D\L	16.bb\LL	.
.	.	32aa\JJk	.
.	8A\ 8F#\	8ff#\L	.
.	8A\J 8F#\	8dd\J	.
*v	*v	*	*
=17	=17	=17
8A\ 8AA\	16.ee\LL 16.cc#\ 16.a\	.
.	32ee\JJk	.
8c#\L 8A\ 8G\ 8E\	16.g#X\LL	.
.	32a\JK	.
8c#\J 8A\ 8G\ 8E\	8eeT\J	.
=18	=18	=18
*^	*	*
4.D/	8D\L	16.ff#\LL 16.dd\ 16.a\	.
.	.	32ff#\JJk	.
.	8d\ 8A\ 8F#\	16.g#X\LL	.
.	.	32a\JK	.
.	8d\J 8A\ 8F#\	8ff#t\J	.
*v	*v	*	*
=19	=19	=19
8A\ 8AA\	16.bb\LL	.
.	32aa\JJk	.
8c#\L 8A\ 8G\ 8E\	8gg\L	.
8c#\J 8A\ 8G\ 8E\	8ee\J	.
!!LO:LB:g=original
=20	=20	=20
8D/ 8DD/	16.dd\LL	.
.	32dd\JJk	.
!LO:TX:i:b:t=fine.	!	!
4d\ 4A\ 4F#\ 4D\	4dddT\	.
.	(16qqccc#/LL	.
!	!LO:TX:t=P:problem=wpisanie fermaty na kresce nie wyświetla się i kasuje znaki po kresce	!
.	16qqddd/JJ)	.
=21||	=21||	=21||
*>C	*	*
*k[fncnb-e-]	*k[fncnb-e-]	*
!	!	!LO:DY:rj
8BB-/	(16dd\LL 16b-\	f
.	32cc#X\L 32a\	.
.	32dd\JJJ 32b-\)	.
4D\	4ff\ 4b-\	.
=22	=22	=22
8F\	(16cc\LL 16a\	.
.	32bn\L 32g#X\	.
.	32cc\JJJ 32a\)	.
4FF/	4ff\ 4a\	.
=23	=23	=23
16.d\LL 16.B-\	16.dd/LL 16.b-/	.
32c\JJk 32F\	32dd/JJk 32f/	.
8B-\L 8D\	8b-/L 8d/	.
8d\J 8B-\	8dd/J 8b-/	.
!!LO:LB:g=original
=24	=24	=24
!	!LO:TUP:b:problem=klamra łukowa	!
8c\ 8A\ 8F\	24bn/LL	.
.	24cc/	.
.	24a/JJ	.
4c\ 4A\ 4F\	4f/	.
=25	=25	=25
8BB-/	(16dd\LL 16b-\	.
.	32cc#X\L 32a\	.
.	32dd\JJJ 32b-\)	.
8D\L	8ff\L 8b-\	.
8D\J	8ff\J 8b-\	.
=26	=26	=26
8F\	(16cc\LL 16a\	.
.	32bn\L 32g#X\	.
.	32cc\JJJ 32a\)	.
!LO:TX:t=P:problem=mixed beam	!	!
8F\L	8ff\L 8a\	.
8FF/J	8ff\J 8a\	.
=27	=27	=27
!LO:TX:t=P:problem=mixed beam	!	!
16.GG/LL	16.dd\LL 16.b-\	.
32G\JJk	32bb-\JJk 32dd\	.
8G/L 8GG/	8dd\L 8b-\	.
8G-X/J 8GG-X/	8een\J 8b-\	.
=28	=28	=28
.	8qgg/	.
8F/ 8FF/	16.ff\LL	.
.	32een\JJk	.
8c\L 8A\ 8F\	8ff\L	.
8c\J 8A\ 8F\	8ff\J 8cc\ 8a\	.
!!LO:PB:g=original
=29!|:	=29!|:	=29!|:
*>D	*	*
*^	*	*
!	!	!	!LO:DY:rj
4.F/	8F\L	16.ff\LL	p
.	.	32ff#X\JJk	.
.	8e-\ 8c\ 8A\	8gg\L	.
.	8e-\J 8c\ 8A\	8cc\J	.
*v	*v	*	*
=30	=30	=30
8BB-\L	16.dd\LL	.
.	32gg\JJk	.
8d\ 8B-\ 8F\	8ff\L	.
8d\J 8B-\ 8F\	8dd\J	.
=31	=31	=31
8F/ 8FF/	16.dd\LL	.
.	32cc\JJk	.
8e-\L 8c\ 8F\	8g/L	.
8e-\J 8c\ 8F\	8a/J	.
=32	=32	=32
8BB-\L	16.b-\LL	.
.	32cc\K	.
8d\ 8B-\ 8F\	16.dd\	.
.	32gg\JK	.
8d\J 8B-\ 8F\	8ff\J	.
=33	=33	=33
.	(8qeen/	.
*^	*	*
4.F/	8F\L	16.ff\LL)	.
.	.	32ff#X\JJk	.
.	8e-\ 8c\ 8A\	8gg\L	.
.	8e-\J 8c\ 8A\	8cc\J	.
*v	*v	*	*
!!LO:LB:g=original
=34	=34	=34
8BB-/	16.dd\LL	.
.	32gg\JJk	.
8d\L 8B-\ 8F\	8ff\L	.
8d\J 8B-\ 8F\	8dd\J	.
=35	=35	=35
*^	*	*
4AA/	8AA\L	16.ff\LL	.
.	.	32een\K	.
.	8A\J 8F\ 8D\	16.dd\	.
.	.	32ff\K	.
8ryy	8G\ 8En\ 8AA\	16.ee\	.
.	.	32cc#X\JJk	.
*v	*v	*	*
=36	=36	=36
8F\L 8D\	(4dd\	.
8F\ 8D\	.	.
8F\J 8D\	8ddd\)	.
=37	=37	=37
!	!	!LO:DY:rj
8BB-/	(16dd\LL 16b-\	f
.	32cc#X\ 32a\	.
.	32dd\JJ 32b-\)	.
4D\	4ff\ 4b-\	.
=38	=38	=38
8F\	(16cc/LL 16a/	.
.	32bn/L 32g#X/	.
.	32cc/JJJ 32a/)	.
4FF/	4ff\ 4a\	.
!!LO:LB:g=original
=39	=39	=39
16.d\LL 16.B-\	16.dd/LL 16.b-/	.
32c\JJk 32F\	32cc/JJk 32f/	.
8B-\L 8D\	8b-/L 8d/	.
8d\J 8B-\	8dd/J 8b-/	.
=40	=40	=40
!	!LO:TUP:b:problem=klamra łukowa	!
8c\ 8A\ 8F\	24bn/LL	.
.	24cc/	.
.	24a/JJ	.
4c\ 4A\ 4F\	4f/	.
=41	=41	=41
8BB-/	(16dd\LL 16b-\	.
.	32cc#X\L 32a\	.
.	32dd\JJJ 32b-\)	.
8D\L	8ff\L 8b-\	.
8D\J	8ff\J 8b-\	.
=42	=42	=42
*^	*	*
4E-/	8E-\L	(16gg\LL 16ee-\	.
.	.	32ff#X\L 32dd\	.
.	.	32gg\JJJ 32ee-\)	.
.	8e-\J 8B-\ 8G\	8bb-\L 8gg\	.
8ryy	8e-\ 8B-\ 8G\	8gg\J 8ee-\	.
!!LO:LB:g=original
=43	=43	=43	=43
4F/	8F\L	16.ff\LL 16.dd\	.
.	.	32ddd\K 32bb-\	.
.	8d\J 8B-\	16.bb-\ 16.ff\	.
.	.	32ff\K 32dd\	.
8ryy	8e-\ 8c\ 8F\	16.ee-\ 16.cc\	.
.	.	32cc\JJk 32a\	.
*v	*v	*	*
=44	=44	=44
.	8qcc/	.
8d\L 8B-\	16.b-\LL	.
.	32a\JJk	.
8d\J 8B-\	16.b-\LL	.
.	32b-\JJk	.
!	!LO:TX:i:a:t=Da capo Mazur al fine [fermata]\ne poi Trio.	!
8d\ 8B-\	8bb-\ 8dd\ 8b-\	.
!!LO:PB:g=original
=45:|!	=45:|!	=45:|!
*>E	*	*
*k[bnenanf#]	*k[bnengnf#]	*
*M3/8	*M3/8	*
!	!LO:TX:i:a:t=Trio.	!LO:DY:rj
16.G\LL 16.D\ 16.GG\	16.g/LL 16.d/ 16.B/	f
32G\JJk 32D\ 32GG\	32g/JJk 32d/ 32B/	.
8G\L 8D\ 8GG\	8g/L 8d/ 8B/	.
8G\J 8D\ 8GG\	8g/J 8d/ 8B/	.
=46	=46	=46
*tremolo	*tremolo	*
8G\ 8D\ 8GG\L	8g/ 8d/ 8B/L	.
8G\ 8D\ 8GG\	8g/ 8d/ 8B/	.
8G\ 8D\ 8GG\J	8g/ 8d/ 8B/J	.
*Xtremolo	*Xtremolo	*
=47!|:	=47!|:	=47!|:
*>F	*	*
(8qGG/	.	.
!	!	!LO:DY:rj
8G\L)	16.b/LL 16.g/	p
.	32b/JJk 32g/	.
8D\	8a/L 8f#/	.
8G\J	8b/J 8g/	.
=48	=48	=48
*^	*	*
4.D/	8D\L	16.dd\LL 16.b\	.
.	.	32cc\JJk 32a\	.
.	8c\ 8A\	4a/ 4f#/	.
.	8c\J 8A\	.	.
!!LO:LB:g=original
=49	=49	=49	=49
4.D/	8D\L	16.cc/LL 16.a/	.
.	.	32cc/JJk 32a/	.
.	8B\ 8G#X\ 8E#X\	8b/L 8g#X/	.
.	8A\J 8F#\	8cc/J 8a/	.
*v	*v	*	*
=50	=50	=50
8GG/	16.ee\LL 16.cc\	.
.	32dd\JJk 32b\	.
8B\L 8G\ 8D\	4b/ 4g/	.
8B\J 8G\ 8D\	.	.
=51	=51	=51
8c\ 8G\ 8E\ 8C\	16.gg\LL 16.ee\	.
.	32gg\JJk 32ee\	.
8r	8ff#\L 8dd\	.
8c\ 8G\ 8E\ 8C\	8ee\J 8cc\	.
=52	=52	=52
.	(<8qee/ 8qcc/	.
16.D\LL	16.dd\LL 16.b\)	.
32D#X\JJk	32cc\JJk 32a\	.
4E\	4b/ 4g/	.
=53	=53	=53
8C/	16a/LL 16e/	.
.	32r	.
.	32ee/JJk 32cc/	.
8B\L 8G\ 8D\	8dd/L 8b/	.
8c\J 8A\ 8F#\ 8D\	8cc/J 8a/	.
!!LO:LB:g=original
=54	=54	=54
!LO:TX:t=P:problem=mixed beam	!	!
8GG/L	16.b/LL 16.g/	.
.	32cc/JJk 32a/	.
8B\ 8G\ 8D\	4dd\ 4b\	.
8B\J 8G\ 8D\	.	.
=55	=55	=55
8c\ 8G\ 8E\ 8C\	16.gg\LL 16.ee\	.
.	32gg\JJk 32ee\	.
.	(<8qgg/ 8qee/	.
8r	8ff#\L 8dd\)	.
8c\ 8G\ 8E\ 8C\	8ee\J 8cc'\	.
=56	=56	=56
.	(<8qee/ 8qcc/	.
16.D\LL	16.dd\LL 16.b\)	.
32D#X\JJk	32cc\JJk 32a\	.
4E\	4b/ 4g/	.
=57	=57	=57
8C\L	16.a/LL 16.e/	.
.	32ee/JJk 32cc/	.
8B\ 8G\ 8D\	8dd/L 8b/	.
8A\J 8D\	8f#/J 8c/	.
=58	=58	=58
16.G\LL	16.g/LL 16.B/	.
32G\JJk	32g/JJk 32B/	.
!	!LO:TX:t=P:problem=ponownie nie można wpisać fermaty na kresce	!
4GG/	4gg\ 4b\ 4g\	.
!!LO:LB:g=original
=59||	=59||	=59||
*tremolo	*	*
!	!LO:TUP:a:problem=klamra łukowa	!
8B\ 8G\ 8E\L	24ee\LL	f
.	24dd#X\	.
.	24ee\JJ	.
8B\ 8G\ 8E\	8gg\L	.
8B\ 8G\ 8E\J	8ee'\J	.
*Xtremolo	*	*
=60	=60	=60
8B\L 8BB\	16.dd#X\LL	.
.	32ccc\K	.
8B\ 8A\ 8F#\ 8D#X\	16.bb\	.
.	32aa#X\JK	.
8B\J 8BB\	8bb\J	.
=61	=61	=61
!	!LO:TUP:a:problem=klamra łukowa	!
8B\L 8A\ 8D#X\ 8BB\	24ff#\LL	.
.	24ee#X\	.
.	24ff#\JJ	.
8B\ 8BB\	8bb\L	.
8B\J 8A\ 8D#\	8ff#'\J	.
=62	=62	=62
*tremolo	*	*
.	(8qaa/	.
8B\ 8G\ 8E\L	16.gg\LL)	.
.	32ff#\K	.
8B\ 8G\ 8E\	16.gg\	.
.	32ff#\JK	.
8B\ 8G\ 8E\J	8ee\J	.
!!LO:LB:g=original
=63	=63	=63
!	!LO:TUP:a:problem=klamra łukowa	!
8d\ 8A\ 8F#\L	24dd\LL	.
.	24cc#X\	.
.	24dd\JJ	.
8d\ 8A\ 8F#\	8ddd\L	.
8d\ 8A\ 8F#\J	8cccn'\J	.
=64	=64	=64
.	(8qccc/	.
8d\ 8B\ 8G\L	16.bb\LL)	.
.	32aa\K	.
8d\ 8B\ 8G\	16.bb\	.
.	32aa\JK	.
8d\ 8B\ 8G\J	8gg\J	.
*Xtremolo	*	*
=65	=65	=65
8C/ 8CC/	16.gg\LL	.
.	32ff#\K	.
8G\L 8E\ 8C\	16.ee\	.
.	32gg\K	.
8A\J 8F#\ 8E\ 8C\	16.ff#\	.
.	32ee\JJk	.
=66	=66	=66
*tremolo	*	*
8B\ 8F#\ 8D#X\ 8BB\L	16.dd#X\LL	.
.	32cc\JJk	.
8B\ 8F#\ 8D#X\ 8BB\	[8b\L	.
8B\ 8F#\ 8D#X\ 8BB\J	16.b\L]	.
.	32dd#\JJk	.
*Xtremolo	*	*
!!LO:LB:g=original
=67	=67	=67
8C/ 8CC/	16.ee\LL	.
.	32dd#X\JJk	.
8G\L 8E\ 8C\	8ee\L	.
8A\J 8F#\ 8E\ 8C\	8ff#\J	.
=68	=68	=68
*tremolo	*	*
8B\ 8F#\ 8D#X\ 8BB\L	16.dd#'\LL	.
.	32ff#'\JJk	.
8B\ 8F#\ 8D#X\ 8BB\	8bb\	.
8B\ 8F#\ 8D#X\ 8BB\J	(16bb\LL	.
.	32ccc#X\L	.
.	32ddd#X\JJJ	.
*Xtremolo	*	*
=69	=69	=69
8C/ 8CC/	8.eee\L)	.
8G\L 8E\ 8C\	.	.
.	(32ee\LL	.
.	32ff#\JJJ	.
8A\J 8F#\ 8E\ 8C\	16gg\LL)	.
.	16aa'\JJ	.
=70	=70	=70
8B\ 8F#\ 8D#X\ 8BB\	8bb\	.
8A\ 8AA\	8ccc\L 8aa\ 8ee\	.
!	!LO:TX:i:a:t=Repetitione \nal fine [fermata] e poi \nla Coda	!
8Dn/ 8DDn/	8ddd\J 8aa\ 8ff#\ 8dd\	.
!!LO:PB:g=original
=71:|!	=71:|!	=71:|!
*>G	*	*
*k[f#c#]	*k[f#c#]	*
!	!LO:TX:i:a:t=Coda	!
8B-X\L 8G\ 8E\ 8C#\	16.e/LL	sf
.	32g/JJk	.
8A\ 8F#\ 8D\	8f#/L	.
8A\J 8F#\ 8D\	8aT/J	.
=72	=72	=72
*rep	*rep	*
8B-X\L 8G\ 8E\ 8C#\	16.e/LL	sfyy
!	!LO:TX:i:b:t=cresc(endo)&colon;	!
.	32g/JJk	.
8A\ 8F#\ 8D\	8f#/L	.
8A\J 8F#\ 8D\	8aT/J	.
*Xrep	*Xrep	*
=73	=73	=73
*rep	*rep	*
8B-X\L 8G\ 8E\ 8C#\	16.e/LL	sfyy
.	32g/JJk	.
8A\ 8F#\ 8D\	8f#/L	.
8A\J 8F#\ 8D\	8aT/J	.
*Xrep	*Xrep	*
=74	=74	=74
*rep	*rep	*
8B-X\L 8G\ 8E\ 8C#\	16.e/LL	sfyy
.	32g/JJk	.
8A\ 8F#\ 8D\	8f#/L	.
8A\J 8F#\ 8D\	8aT/J	.
*Xrep	*Xrep	*
=75	=75	=75
!	!	!LO:DY:rj
16.D/LL 16.DD/	16.ff#\LL 16.dd\ 16.a\	f
32E/JJk 32EE/	32cc#\JJk 32a\ 32g\	.
8F#/L 8FF#/	8dd\L 8a\	.
8G/J 8GG/	8b\J 8g\	.
=76	=76	=76
*tremolo	*	*
8A\ 8AA\L	16.a/LL 16.f#/	.
.	32g/JJk 32e/	.
8A\ 8AA\	8e/L 8c#/	.
8A\ 8AA\J	8g/J 8e/	.
*Xtremolo	*	*
!!LO:LB:	!	!g=original
=77	=77	=77
16.A\LL 16.D\	16.f#/LL 16.d/	.
32G\JJk 32E\	32cc#/JJk 32a/ 32g/	.
8A\L 8F#\	8dd/L 8a/	.
8B\J 8G\	8ee/J 8b/ 8g/	.
=78	=78	=78
!LO:TX:t=P:problem=mixed beam	!	!
16.A\LL	16.a/LL 16.f#/	.
32AA/JJk	32cc#/JJk 32a/ 32g/ 32e/	.
8AA/L	8ee/L 8cc#/ 8g/	.
8D/J	8dd/J 8f#/	.
=79||	=79||	=79||
8A\ 8AA\	16.ee\LL 16.cc#\ 16.a\	.
.	32ee\JJk 32cc#\ 32a\	.
8c#\L 8A\ 8G\ 8E\	8a\L	.
8c#\J 8A\ 8G\ 8E\	8eeT\J	.
=80	=80	=80
*^	*	*
4.D/	8D\L	16.ff#\LL 16.dd\ 16.a\	.
.	.	32ff#\JJk	.
.	8d\ 8A\ 8F#\	8a\L	.
.	8d\J 8A\ 8F#\	8ff#t\J	.
*v	*v	*	*
=81	=81	=81
8AA/	16.aa\LL	.
.	32gg\JJk	.
8A\L 8G\ 8E\	8ee\L	.
8A\J 8G\ 8E\	8cc#\J	.
!!LO:LB:g=original
=82	=82	=82
*^	*	*
4.D/	8D\L	16.bb\LL	.
.	.	32aa\JJk	.
.	8A\ 8F#\	8ff#\L	.
.	8A\J 8F#\	8dd\J	.
*v	*v	*	*
=83	=83	=83
8A\ 8AA\	16.ee\LL 16.cc#\ 16.a\	.
.	32ee\JJk	.
8c#\L 8A\ 8G\ 8E\	16.g#X\LL	.
.	32a\JK	.
8c#\J 8A\ 8G\ 8E\	8eeT\J	.
=84	=84	=84
*^	*	*
4.D/	8D\L	16.ff#\LL 16.dd\ 16.a\	.
.	.	32ff#\JJk	.
.	8d\ 8A\ 8F#\	16.g#X\LL	.
.	.	32a\JK	.
.	8d\J 8A\ 8F#\	8ff#t\J	.
*v	*v	*	*
=85	=85	=85
8AA/	(8.bb\L	.
8A\L 8G\ 8E\	.	.
.	16aa\L)	.
8A\J 8G\ 8E\	(16gg\	.
.	16ee\JJ)	.
=86	=86	=86
.	(8qcc#/	.
8AA/	16b/LL)	.
.	16a/JJ	.
8A\L 8G\ 8C#\	8ff#\L	.
8A\J 8G\ 8C#\	8ee\J	.
!!LO:LB:g=original
=87	=87	=87
8A\ 8F#\ 8D\	16.dd\LL	.
.	32ff#\JJk	.
8r	8aa\L	.
8A\ 8E\ 8C#\ 8AA\	8aaT\J	.
=88	=88	=88
*rep	*rep	*
8A\ 8F#\ 8D\	16.dd\LL	.
.	32ff#\JJk	.
8r	8aa\L	.
8A\ 8E\ 8C#\ 8AA\	8aaT\J	.
*Xrep	*Xrep	*
=89	=89	=89
*rep	*rep	*
8A\ 8F#\ 8D\	16.dd\LL	.
.	32ff#\JJk	.
8r	8aa\L	.
8A\ 8E\ 8C#\ 8AA\	8aaT\J	.
*Xrep	*Xrep	*
=90	=90	=90
8A\ 8F#\ 8D\	16.dd\LL	.
.	32ff#\JJk	.
8r	8aa\L	.
8G\ 8E\ 8AA\	8ccc#t\J	.
=91	=91	=91
8F#\ 8D\	16.ddd\LL 16.ff#\	.
.	32dd\JJk	.
8d\L 8D\	8ff#\L 8dd\ 8a\	.
8A#X\J 8AA#X\	8cc#\J 8f#\	.
=92	=92	=92
8B/L 8BB/	8dd/L 8b/ 8f#/	.
8G/ 8GG/	8b/ 8g/	.
8E/J 8EE/	8ee/J 8g/	.
!!LO:LB:	!	!g=original
=93	=93	=93
*tremolo	*	*
8A\ 8AA\L	(16a'\LL	.
.	32dd\L	.
.	32ff#\JJJ)	.
8A\ 8AA\	8aa\ 8ff#\ 8dd\	.
8A\ 8AA\J	8ccc#\ 8aa\ 8gg\ 8ee\	.
*Xtremolo	*	*
=94	=94	=94
!	!LO:TX:i:a:t=piu mosso.	!
8d\ 8D\	8ddd\ 8aa\ 8ff#\	.
!LO:TX:t=P:problem=mixed beam	!	!
(16B-X\LL	8r	.
16A\J)	.	.
8AA'/J	8ccc#\ 8aa\ 8gg\ 8ee\	.
=95	=95	=95
!LO:TX:t=P:problem=mixed beam	!	!
8D'\L	8ddd\ 8aa\ 8ff#\	.
(16B-X\L	8r	.
16A\J)	.	.
8AA'/J	8ccc#\ 8aa\ 8gg\ 8ee\	.
=96	=96	=96
*rep	*rep	*
8D'\L	8ddd\ 8aa\ 8ff#\	.
(16B-X\L	8r	.
16A\J)	.	.
8AA'/J	8ccc#\ 8aa\ 8gg\ 8ee\	.
*Xrep	*Xrep	*
=97	=97	=97
*rep	*rep	*
8D'\L	8ddd\ 8aa\ 8ff#\	.
(16B-X\L	8r	.
16A\J)	.	.
8AA'/J	8ccc#\ 8aa\ 8gg\ 8ee\	.
*Xrep	*Xrep	*
=98	=98	=98
8D\	8ddd\ 8aa\ 8ff#\ 8dd\	.
8r	8r	.
8r	8r	.
!!LO:LB:g=original
=99	=99	=99
8d\ 8A\ 8F#\ 8D\	8fff#\ 8ddd\ 8aa\	.
8.r	8.r	.
16D\	16d/	.
=100	=100	=100
4.D\	4.d/	.
=101	=101	=101
8d\ 8A\ 8F#\ 8D\	8ddd\ 8aa\ 8ff#\ 8dd\	.
8r	8r	.
8r	8r	.
==	==	==
*-	*-	*-
!!!system-decoration: {(s1,s2)}
!!!RDF**kern: > = above
!!!RDF**kern: < = below
!!!EED: Leszek Kubiak
!!!EEV: 2021-05-05
!!!ENC: Andrzej Gręziak
!!!END: 2021-04-11
